packages/gestalt-icons-android/vr-theme/ic_vr_face-tryon_gestalt.svg

<svg width="24" height="24" viewBox="0 0 24 24" fill="none" xmlns="http://www.w3.org/2000/svg">
<path d="M12 2C6.47715 2 2 6.47715 2 12C2 17.5228 6.47715 22 12 22C12.8621 22 13.6973 21.8911 14.4933 21.6869L14.9903 23.6242C14.0333 23.8697 13.0311 24 12 24C5.37258 24 0 18.6274 0 12C0 5.37258 5.37258 0 12 0C18.6274 0 24 5.37258 24 12C24 13.0311 23.8697 14.0333 23.6242 14.9903L21.6869 14.4933C21.8911 13.6973 22 12.8621 22 12C22 6.47715 17.5228 2 12 2Z" fill="black"/>
<path d="M10 8.5C10 9.32843 9.32843 10 8.5 10C7.67157 10 7 9.32843 7 8.5C7 7.67157 7.67157 7 8.5 7C9.32843 7 10 7.67157 10 8.5Z" fill="black"/>
<path d="M15.5 10C16.3284 10 17 9.32843 17 8.5C17 7.67157 16.3284 7 15.5 7C14.6716 7 14 7.67157 14 8.5C14 9.32843 14.6716 10 15.5 10Z" fill="black"/>
<path d="M18.6 15H19.4L19.5157 15.4965C19.8614 16.9801 21.0199 18.1386 22.5035 18.4843L23 18.6V19.4L22.5035 19.5157C21.0199 19.8614 19.8614 21.0199 19.5157 22.5035L19.4 23H18.6L18.4843 22.5035C18.1386 21.0199 16.9801 19.8614 15.4965 19.5157L15 19.4V18.6L15.4965 18.4843C16.9801 18.1386 18.1386 16.9801 18.4843 15.4965L18.6 15Z" fill="black"/>
<path d="M16.36 11.2316C14.9166 12.4339 13.437 13 12 13C10.563 13 9.0834 12.4339 7.64001 11.2316L6.35999 12.7684C8.08699 14.2069 10.0054 15 12 15C13.9946 15 15.913 14.2069 17.64 12.7684L16.36 11.2316Z" fill="black"/>
</svg>

<svg xmlns="http://www.w3.org/2000/svg" width="24" height="24"><path d="M12 2a10 10 0 1 0 2.5 19.69l.49 1.93A12.02 12.02 0 0 1 0 12a12 12 0 1 1 23.62 2.99l-1.93-.5A10.02 10.02 0 0 0 12 2m-2 6.5a1.5 1.5 0 1 1-3 0 1.5 1.5 0 0 1 3 0m4 0a1.5 1.5 0 1 1 3 0 1.5 1.5 0 0 1-3 0m4.6 6.5h.8l.12.5a4 4 0 0 0 2.98 2.98l.5.12v.8l-.5.12a4 4 0 0 0-2.98 2.98l-.12.5h-.8l-.12-.5a4 4 0 0 0-2.98-2.98l-.5-.12v-.8l.5-.12a4 4 0 0 0 2.98-2.98zm-.96-2.23A8.8 8.8 0 0 1 12 15c-2 0-3.91-.8-5.64-2.23l1.28-1.54A6.8 6.8 0 0 0 12 13q2.18.02 4.36-1.77z"/></svg>
